!!!!SEGMENT: pl-kk--kk-i-382--041-005_singenberger-johann-baptist--msza-na-3-glosy-agnus.krn
!!!cenid: 18xx:1532
!!!COM: Singenberger, Johann Baptist
!!!COM-rismid: pe30008527
!!!CDT: 1848-1924
!!!CNT:
!!!OPR: Msza na 3 głosy
!!!OTL: Agnus
!!!OMV: 005
!!!PDT:
!!!AGN: Sacred; Mass
!!!SMS-siglum: PL-Kk
!!!SMS-shelfmark: Kk.I.382
!!!SMS-shelfwork: 027-005 M
!!!SMS-variant:
!!!SMS-altvar:
!!!NIFC-rismid: 1001140188
!!!URL-scan: http://repozytorium.nifc.pl/skany/pl-kk-nut--i-382
!!!ONB-nifc: UWAGA: obsada: S/T1, T2, B2. Skan 0033-0034, 0110-0111, 0254-0255. Osobne części Mszy: Kyrie, Gloria, Sanctus, Benedictus, Agnus
!!!key:
**kern	**text	**kern	**text	**dynam	**kern	**text	**dynam
*part3	*part3	*part2	*part2	*part2	*part1	*part1	*part1
*staff3	*staff3	*staff2	*staff2	*	*staff1	*staff1	*
*Ibass	*	*Itenor	*	*	*Ivox	*	*
*I"Basso	*	*I"Tenore	*	*	*I"Canto	*	*
*clefF4	*	*clefG2	*	*	*clefG2	*	*
*k[b-]	*	*k[b-]	*	*	*k[b-]	*	*
*F:	*	*F:	*	*	*F:	*	*
*M4/4	*	*M4/4	*	*	*M4/4	*	*
*met(c)	*	*met(c)	*	*	*met(c)	*	*
=1	=1	=1	=1	=1	=1	=1	=1
!LO:TX:a:t=3	!	!	!	!	!LO:TX:t=P:problem:2/left & 2\right	!	!
1r	.	4f/	A-	.	4f/	A-	.
.	.	4g/	-gnus	.	4g/	-gnus	.
.	.	(4.a/	De-	.	(4.a/	De-	.
.	.	8g/)	.	.	8g/)	.	.
=2	=2	=2	=2	=2	=2	=2	=2
1r	.	4f/	-i	.	4f/	-i	.
.	.	4f/	qui	.	4f/	qui	.
.	.	4b-\	tol-	.	4b-\	tol-	.
.	.	8a/	-lis	.	8a/	-lis	.
.	.	8a/	pec-	.	8a/	pec-	.
=3	=3	=3	=3	=3	=3	=3	=3
1r	.	4g/	-ca-	.	4g/	-ca-	.
.	.	4a/	-ta	.	4a/	-ta	.
.	.	2f/	mun-	.	2f/	mun-	.
=4	=4	=4	=4	=4	=4	=4	=4
2r	.	2e/	-di,	.	2e/	-di,	.
4C/	mi-	4c/	mi-	.	4e/	mi-	.
4C/	-se-	4d/	-se-	.	4f/	-se-	.
!	!	!LO:LB:g=original	!	!	!LO:LB:g=original	!	!
=5	=5	=5	=5	=5	=5	=5	=5
4C/	-re-	4e/	-re-	.	4g/	-re-	.
4C/	-re	4e/	-re	.	4g/	-re	.
8F\L	no-	(4f/	no-	.	2a/	no-	.
8G\	.	.	.	.	.	.	.
8A\	.	8c/L	.	.	.	.	.
8B-\J	.	8d/J)	.	.	.	.	.
=6	=6	=6	=6	=6	=6	=6	=6
*2\right	*	*	*	*	*	*	*
2.c\	-bis	2.e/	-bis	.	2.g/	-bis	.
4r	.	4r	.	.	4r	.	.
=7||	=7||	=7||	=7||	=7||	=7||	=7||	=7||
!LO:TX:a:t=3	!	!LO:TX:a:t=3	!	!	!	!	!
1r	.	1r	.	.	4g/	a-	.
.	.	.	.	.	4a/	-gnus	.
.	.	.	.	.	4.b-\	De-	.
.	.	.	.	.	8a/	.	.
!!linebreak:original
=8	=8	=8	=8	=8	=8	=8	=8
1r	.	1r	.	.	4g/	-i	.
.	.	.	.	.	4g/	qui	.
.	.	.	.	.	4cc\	tol-	.
.	.	.	.	.	8b-\	-lis	.
.	.	.	.	.	8b-\	pec-	.
=9	=9	=9	=9	=9	=9	=9	=9
1r	.	1r	.	.	4a/	-ca-	.
.	.	.	.	.	4b-\	-ta	.
.	.	.	.	.	2a/	mun-	.
!LO:LB:g=original	!	!	!	!	!LO:LB:g=original	!	!
=10	=10	=10	=10	=10	=10	=10	=10
2r	.	2r	.	.	2g/	-di	.
4F\	mi-	4f/	mi-	.	4a/	mi-	.
4G\	-se-	8e/L	-se-	.	4b-\	-se-	.
.	.	8d/J	.	.	.	.	.
=11	=11	=11	=11	=11	=11	=11	=11
4A\	-re-	4c/	-re-	.	4cc\	-re-	.
4B-\	-re	4d/	-re	.	8b-\L	-re	.
.	.	.	.	.	8a\J	.	.
2c\	no-	2e/	no-	.	2g/	no-	.
=12	=12	=12	=12	=12	=12	=12	=12
2.F\	-bis	2.f/	-bis	.	2.f/	-bis	.
4r	.	4r	.	.	4r	.	.
=13	=13	=13	=13	=13	=13	=13	=13
4F\	a-	4f/	a-	.	4a/	a-	.
4D\	-gnus	4f/	-gnus	.	4b-\	-gnus	.
4C/	De-	4e/	De-	.	4cc\	De-	.
8C/	-i	8e/	-i	.	8g/	-i	.
8C/	qui	8e/	qui	.	8g/	qui	.
!	!	!LO:LB:g=original	!	!	!	!	!
=14	=14	=14	=14	=14	=14	=14	=14
4F\	tol-	4f/	tol-	.	4a/	tol-	.
8C/	-lis	8e/	-lis	.	8g/	-lis	.
8C/	pec-	8e/	pec-	.	8g/	pec-	.
4D\	-ca-	4d/	-ca-	.	4f/	-ca-	.
8E\L	-ta	4c/	-ta	.	4e/	-ta	.
8F\J	.	.	.	.	.	.	.
!LO:LB:g=original	!	!	!	!	!LO:LB:g=original	!	!
=15	=15	=15	=15	=15	=15	=15	=15
(2G\	mun-	4c/	mun-	.	1d/	mun-	.
.	.	8Bn/L	.	.	.	.	.
.	.	8A/J	.	.	.	.	.
2GG/)	.	2B/	.	.	.	.	.
=16	=16	=16	=16	=16	=16	=16	=16
2C/	-di	2c/	-di	.	2e/	-di	.
2r	.	2r	.	.	[>2g/	do-	.
=17	=17	=17	=17	=17	=17	=17	=17
2C/	do-	2e/	do-	.	4g/]	.	.
.	.	.	.	.	4a/	.	.
2G\	-na	(4d/	-na	.	4b-\	-na	.
.	.	4e/)	.	.	4b-\	.	.
=18	=18	=18	=18	=18	=18	=18	=18
2D\	no-	2.f/	no-	.	(4a/	no-	.
.	.	.	.	.	4b-\)	.	.
2A\	-bis	.	.	.	2cc\	-bis	.
.	.	4e/	-bis	.	.	.	.
=19	=19	=19	=19	=19	=19	=19	=19
(2B-\	do-	(4d/	do-	.	2dd\	do-	.
.	.	4e/	.	.	.	.	.
4A\)	.	4f/)	.	.	4cc\	.	.
4B-\	-na	4g/	-na	.	4b-\	-na	.
!	!	!LO:LB:g=original	!	!	!	!	!
=20	=20	=20	=20	=20	=20	=20	=20
(2c\	pa-	4g/	pa-	.	2a/	pa-	.
.	.	2f/	.	.	.	.	.
2C/)	.	.	.	.	2g/	.	.
.	.	4e/	.	.	.	.	.
=21	=21	=21	=21	=21	=21	=21	=21
2F\	-cem	2f/	-cem	.	2f/	-cem	.
4F\	do-	4f/	do-	.	4f/	do-	.
4A\	-na	4e-X/	-na	.	4f/	-na	.
!LO:LB:g=original	!	!	!	!	!LO:LB:g=original	!	!
=22	=22	=22	=22	=22	=22	=22	=22
1B-\	pa-	4e-X/	pa-	.	2.f/	pa-	.
.	.	8d/L	.	.	.	.	.
.	.	8c/J	.	.	.	.	.
.	.	2d/	.	.	.	.	.
.	.	.	.	.	4g/	.	.
=23	=23	=23	=23	=23	=23	=23	=23
!	!	!	!	!LO:DY:rj:a	!	!	!LO:DY:rj:a
1F\;<	-cem	1c/;	-cem	ppp	1a/;	-cem	ppp
==	==	==	==	==	==	==	==
*-	*-	*-	*-	*-	*-	*-	*-
!!!system-decoration: [(s1,s2,s3)]
!!!RDF**kern: > = above
!!!RDF**kern: < = below
!!!EED: Leszek Kubiak
!!!EST: 2021-02-08
!!!AIN: 1 bass 1 tenor 1 vox
!!!ENC: Tomasz Grochalski
!!!END: 2021-01-29
